images/drbd-plus-logo.svg

<?xml version="1.0" encoding="UTF-8" standalone="no"?>
<!-- Generator: Adobe Illustrator 12.0.0, SVG Export Plug-In . SVG Version: 6.00 Build 51448)  -->

<svg
   xmlns:dc="http://purl.org/dc/elements/1.1/"
   xmlns:cc="http://creativecommons.org/ns#"
   xmlns:rdf="http://www.w3.org/1999/02/22-rdf-syntax-ns#"
   xmlns:svg="http://www.w3.org/2000/svg"
   xmlns="http://www.w3.org/2000/svg"
   xmlns:sodipodi="http://sodipodi.sourceforge.net/DTD/sodipodi-0.dtd"
   xmlns:inkscape="http://www.inkscape.org/namespaces/inkscape"
   version="1.0"
   id="Ebene_1"
   width="333.21597"
   height="76.985596"
   viewBox="0 0 318.77 72.45"
   style="overflow:visible"
   xml:space="preserve"
   sodipodi:version="0.32"
   inkscape:version="0.92.1 r15371"
   sodipodi:docname="drbd-plus-logo.svg"
   inkscape:output_extension="org.inkscape.output.svg.inkscape"><metadata
     id="metadata2202"><rdf:RDF><cc:Work
         rdf:about=""><dc:format>image/svg+xml</dc:format><dc:type
           rdf:resource="http://purl.org/dc/dcmitype/StillImage" /></cc:Work></rdf:RDF></metadata><defs
     id="defs2200" /><sodipodi:namedview
     inkscape:window-height="534"
     inkscape:window-width="1046"
     inkscape:pageshadow="2"
     inkscape:pageopacity="0.0"
     guidetolerance="10.0"
     gridtolerance="10.0"
     objecttolerance="10.0"
     borderopacity="1.0"
     bordercolor="#666666"
     pagecolor="#ffffff"
     id="base"
     showgrid="false"
     inkscape:zoom="1.7706234"
     inkscape:cx="166.60799"
     inkscape:cy="38.492798"
     inkscape:window-x="0"
     inkscape:window-y="955"
     inkscape:window-maximized="0"
     inkscape:current-layer="Ebene_1" /><g
     id="XMLID_6_"
     transform="translate(-0.2500012,-0.026)"><g
       id="g2184"><path
         style="fill:#ef8213"
         d="m 131.67,70.69 v 1.51 h -23.14 l -0.36,-0.97 c -0.76,-2.02 -1.25,-6.96 -1.25,-12.6 0,-8.35 -1.04,-10.47 -10.6,-10.47 H 90.9 V 72.2 H 65.23 V 63.9 C 71.19,56.88 74.22,47.11 74.22,34.79 74.22,28.72 73.29,23.21 71.46,18.4 69.97,14.5 67.88,11.05 65.23,8.09 V 0.25 h 34.16 c 19.25,0 28.88,4.37 31.43,14.74 -5.17,1.49 -8.96,6.26 -8.96,11.9 0,3.56 1.52,6.77 3.94,9.04 -0.99,0.89 -2.09,1.67 -3.32,2.31 3.28,1.46 5.75,3.23 7.28,6.61 -4.61,1.8 -7.9,6.29 -7.9,11.54 0,5.95 4.21,10.92 9.8,12.12 0.01,1.31 0.01,2.18 0.01,2.18 z M 98.33,30.03 c 8.14,0 9.26,-2.4 9.26,-5.01 0,-4.94 -4.78,-5.68 -7.62,-5.68 H 90.9 v 10.69 z"
         id="path2186"
         inkscape:connector-curvature="0" /></g><g
       id="g2188" /></g><g
     id="XMLID_5_"
     transform="translate(-0.2500012,-0.026)"><g
       id="g2191"><path
         style="fill:#ef8213"
         d="M 69.72,34.79 C 69.72,59.61 56.87,72.2 31.53,72.2 H 0.25 V 0.25 H 32.1 c 24.26,0 37.62,12.27 37.62,34.54 z m -39.3,18.3 c 9.29,-0.43 13.63,-5.87 13.63,-17.05 0,-14.29 -4.72,-16.7 -15.31,-16.7 h -2.82 v 33.77 h 3.3 c 0.41,0 0.81,-0.01 1.2,-0.02 z"
         id="path2193"
         inkscape:connector-curvature="0" /></g><g
       id="g2195" /></g><path
     d="m 134.01,35.865 c 4.97,0 9,-4.029 9,-9 0,-4.971 -4.03,-9 -9,-9 -4.971,0 -9,4.029 -9,9 0,4.971 4.029,9 9,9 z m 163.618,-3.021 1.789,-14.533 h -17.284 l -1.789,14.533 H 265.58 l -2.129,17.285 h 14.765 l -0.55,4.466 -0.004,0.034 -1.301,10.569 h 17.283 l 1.855,-15.069 h 14.763 L 312.39,32.844 H 297.628 Z M 143.01,56.365 c 0,-4.971 -4.03,-9 -9,-9 -4.971,0 -9,4.029 -9,9 0,4.971 4.029,9 9,9 4.97,0 9,-4.029 9,-9 z m 61.145,-6.261 c 0.143,-1.016 0.211,-2.006 0.21,-2.967 -0.008,-4.272 -1.413,-7.959 -3.946,-10.618 -0.043,-0.045 -0.087,-0.091 -0.131,-0.136 -1.038,-1.059 -2.258,-1.948 -3.644,-2.64 5.15,-3.765 8.579,-9.009 9.347,-14.471 0.148,-1.052 0.22,-2.064 0.218,-3.035 -0.01,-3.631 -1.072,-6.681 -3.172,-9.098 C 198.995,2.49 191.13,0.23 178.992,0.23 h -34.345 l -0.181,1.291 -2.258,16.065 c 2.57,2.273 4.202,5.585 4.202,9.278 0,4.931 -2.9,9.186 -7.077,11.182 l -0.946,6.73 c 4.681,1.775 8.023,6.292 8.023,11.587 0,6.496 -5.023,11.831 -11.388,12.349 l -0.246,1.752 -0.24,1.709 h 35.439 c 20.913,0.002 32.094,-7.217 34.18,-22.069 z M 179.364,47.83 c -0.534,3.618 -3.248,5.028 -9.677,5.028 h -8.254 l 1.368,-9.735 h 5.939 c 4.48,0 8.621,0.13 10.055,1.698 0.432,0.472 0.646,1.128 0.649,1.991 0.001,0.311 -0.026,0.651 -0.08,1.018 z m 1.21,-24.992 c -0.642,4.279 -5.557,4.741 -7.64,4.741 h -7.948 l 1.193,-8.491 h 6.941 c 2.64,0 5.925,0 7.013,1.17 0.34,0.367 0.513,0.918 0.516,1.646 0,0.284 -0.024,0.596 -0.075,0.934 z m 78.413,26.741 2.127,-17.285 0.486,-3.95 h 10.18 C 271.872,20.612 269.882,14.341 265.815,9.661 260.243,3.25 250.995,0 238.329,0 h -31.657 l -0.181,1.291 -0.362,2.576 c 0.099,0.108 0.208,0.21 0.304,0.32 v 10e-4 h 0.001 c 1.8,2.072 3.049,4.504 3.713,7.231 0.628,2.577 0.729,5.43 0.3,8.48 -0.684,4.865 -3.067,9.602 -6.734,13.558 4.026,4.26 5.858,10.441 4.898,17.273 -1.214,8.645 -5.195,15.238 -11.823,19.607 l -0.226,1.607 h 31.501 c 17.171,0 29.385,-5.813 36.53,-17.315 h -6.229 z M 245.471,35.571 c -1.659,11.793 -7.203,17.286 -17.454,17.286 h -3.077 l 4.745,-33.77 h 3.02 c 5.889,0 9.34,0.951 11.193,3.083 2.03,2.335 2.53,6.593 1.573,13.401 z"
     id="path2197"
     inkscape:connector-curvature="0" /></svg>

<?xml version="1.0" encoding="UTF-8" standalone="no"?>
<!-- Generator: Adobe Illustrator 12.0.0, SVG Export Plug-In . SVG Version: 6.00 Build 51448)  -->
<svg
   xmlns:dc="http://purl.org/dc/elements/1.1/"
   xmlns:cc="http://web.resource.org/cc/"
   xmlns:rdf="http://www.w3.org/1999/02/22-rdf-syntax-ns#"
   xmlns:svg="http://www.w3.org/2000/svg"
   xmlns="http://www.w3.org/2000/svg"
   xmlns:sodipodi="http://sodipodi.sourceforge.net/DTD/sodipodi-0.dtd"
   xmlns:inkscape="http://www.inkscape.org/namespaces/inkscape"
   version="1.0"
   id="Ebene_1"
   width="312.38998"
   height="72.173996"
   viewBox="0 0 318.77 72.45"
   style="overflow:visible;enable-background:new 0 0 318.77 72.45;"
   xml:space="preserve"
   sodipodi:version="0.32"
   inkscape:version="0.45.1"
   sodipodi:docname="drbd-plus-logo.svg"
   sodipodi:docbase="/home/florian/git/drbd-howto-collection/users-guide/images"
   inkscape:output_extension="org.inkscape.output.svg.inkscape"><metadata
   id="metadata2202"><rdf:RDF><cc:Work
       rdf:about=""><dc:format>image/svg+xml</dc:format><dc:type
         rdf:resource="http://purl.org/dc/dcmitype/StillImage" /></cc:Work></rdf:RDF></metadata><defs
   id="defs2200" /><sodipodi:namedview
   inkscape:window-height="480"
   inkscape:window-width="640"
   inkscape:pageshadow="2"
   inkscape:pageopacity="0.0"
   guidetolerance="10.0"
   gridtolerance="10.0"
   objecttolerance="10.0"
   borderopacity="1.0"
   bordercolor="#666666"
   pagecolor="#ffffff"
   id="base" />

<g
   id="XMLID_6_"
   transform="translate(-0.2500012,-2.6e-2)">
	<g
   id="g2184">
		<path
   style="fill:#ef8213"
   d="M 131.67,70.69 L 131.67,72.2 L 108.53,72.2 L 108.17,71.23 C 107.41,69.21 106.92,64.27 106.92,58.63 C 106.92,50.28 105.88,48.16 96.32,48.16 L 90.9,48.16 L 90.9,72.2 L 65.23,72.2 L 65.23,63.9 C 71.19,56.88 74.22,47.11 74.22,34.79 C 74.22,28.72 73.29,23.21 71.46,18.4 C 69.97,14.5 67.88,11.05 65.23,8.09 L 65.23,0.25 L 99.39,0.25 C 118.64,0.25 128.27,4.62 130.82,14.99 C 125.65,16.48 121.86,21.25 121.86,26.89 C 121.86,30.45 123.38,33.66 125.8,35.93 C 124.81,36.82 123.71,37.6 122.48,38.24 C 125.76,39.7 128.23,41.47 129.76,44.85 C 125.15,46.65 121.86,51.14 121.86,56.39 C 121.86,62.34 126.07,67.31 131.66,68.51 C 131.67,69.82 131.67,70.69 131.67,70.69 z M 98.33,30.03 C 106.47,30.03 107.59,27.63 107.59,25.02 C 107.59,20.08 102.81,19.34 99.97,19.34 L 90.9,19.34 L 90.9,30.03 L 98.33,30.03 z "
   id="path2186" />
	</g>
	<g
   id="g2188">
	</g>
</g>
<g
   id="XMLID_5_"
   transform="translate(-0.2500012,-2.6e-2)">
	<g
   id="g2191">
		<path
   style="fill:#ef8213"
   d="M 69.72,34.79 C 69.72,59.61 56.87,72.2 31.53,72.2 L 0.25,72.2 L 0.25,0.25 L 32.1,0.25 C 56.36,0.25 69.72,12.52 69.72,34.79 z M 30.42,53.09 C 39.71,52.66 44.05,47.22 44.05,36.04 C 44.05,21.75 39.33,19.34 28.74,19.34 L 25.92,19.34 L 25.92,53.11 L 29.22,53.11 C 29.63,53.11 30.03,53.1 30.42,53.09 z "
   id="path2193" />
	</g>
	<g
   id="g2195">
	</g>
</g>
<path
   d="M 134.01,35.865 C 138.98,35.865 143.01,31.836 143.01,26.865 C 143.01,21.894 138.98,17.865 134.01,17.865 C 129.039,17.865 125.01,21.894 125.01,26.865 C 125.01,31.836 129.039,35.865 134.01,35.865 z M 297.628,32.844 L 299.417,18.311 L 282.133,18.311 L 280.344,32.844 L 265.58,32.844 L 263.451,50.129 L 278.216,50.129 L 277.666,54.595 L 277.662,54.629 L 276.361,65.198 L 293.644,65.198 L 295.499,50.129 L 310.262,50.129 L 312.39,32.844 L 297.628,32.844 L 297.628,32.844 z M 143.01,56.365 C 143.01,51.394 138.98,47.365 134.01,47.365 C 129.039,47.365 125.01,51.394 125.01,56.365 C 125.01,61.336 129.039,65.365 134.01,65.365 C 138.98,65.365 143.01,61.336 143.01,56.365 z M 204.155,50.104 C 204.298,49.088 204.366,48.098 204.365,47.137 C 204.357,42.865 202.952,39.178 200.419,36.519 C 200.376,36.474 200.332,36.428 200.288,36.383 C 199.25,35.324 198.03,34.435 196.644,33.743 C 201.794,29.978 205.223,24.734 205.991,19.272 C 206.139,18.22 206.211,17.208 206.209,16.237 C 206.199,12.606 205.137,9.556 203.037,7.139 C 198.995,2.49 191.13,0.23 178.992,0.23 L 144.647,0.23 L 144.466,1.521 L 142.208,17.586 C 144.778,19.859 146.41,23.171 146.41,26.864 C 146.41,31.795 143.51,36.05 139.333,38.046 L 138.387,44.776 C 143.068,46.551 146.41,51.068 146.41,56.363 C 146.41,62.859 141.387,68.194 135.022,68.712 L 134.776,70.464 L 134.536,72.173 L 169.975,72.173 C 190.888,72.175 202.069,64.956 204.155,50.104 z M 179.364,47.83 C 178.83,51.448 176.116,52.858 169.687,52.858 L 161.433,52.858 L 162.801,43.123 L 168.74,43.123 C 173.22,43.123 177.361,43.253 178.795,44.821 C 179.227,45.293 179.441,45.949 179.444,46.812 C 179.445,47.123 179.418,47.463 179.364,47.83 z M 180.574,22.838 C 179.932,27.117 175.017,27.579 172.934,27.579 L 164.986,27.579 L 166.179,19.088 L 173.12,19.088 C 175.76,19.088 179.045,19.088 180.133,20.258 C 180.473,20.625 180.646,21.176 180.649,21.904 C 180.649,22.188 180.625,22.5 180.574,22.838 z M 258.987,49.579 L 261.114,32.294 L 261.6,28.344 L 271.78,28.344 C 271.872,20.612 269.882,14.341 265.815,9.661 C 260.243,3.25 250.995,-1.0456913e-14 238.329,-1.0456913e-14 L 206.672,-1.0456913e-14 L 206.491,1.291 L 206.129,3.867 C 206.228,3.975 206.337,4.077 206.433,4.187 L 206.433,4.188 L 206.434,4.188 C 208.234,6.26 209.483,8.692 210.147,11.419 C 210.775,13.996 210.876,16.849 210.447,19.899 C 209.763,24.764 207.38,29.501 203.713,33.457 C 207.739,37.717 209.571,43.898 208.611,50.73 C 207.397,59.375 203.416,65.968 196.788,70.337 L 196.562,71.944 L 228.063,71.944 C 245.234,71.944 257.448,66.131 264.593,54.629 L 258.364,54.629 L 258.987,49.579 z M 245.471,35.571 C 243.812,47.364 238.268,52.857 228.017,52.857 L 224.94,52.857 L 229.685,19.087 L 232.705,19.087 C 238.594,19.087 242.045,20.038 243.898,22.17 C 245.928,24.505 246.428,28.763 245.471,35.571 z "
   id="path2197" />
</svg>
